public/assets/icons/image.svg

<svg width="20" height="20" viewBox="0 0 20 20" fill="none" xmlns="http://www.w3.org/2000/svg">
<path fill-rule="evenodd" clip-rule="evenodd" d="M6.38881 18.3334H13.611C16.4362 18.3334 18.3337 16.3517 18.3337 13.4028V6.59735C18.3337 3.64851 16.4362 1.66675 13.6118 1.66675H6.38881C3.56441 1.66675 1.66699 3.64851 1.66699 6.59735V13.4028C1.66699 16.3517 3.56441 18.3334 6.38881 18.3334ZM7.08271 9.16675C5.93384 9.16675 5.00033 8.23197 5.00033 7.08342C5.00033 5.93486 5.93384 5.00008 7.08271 5.00008C8.23074 5.00008 9.16509 5.93486 9.16509 7.08342C9.16509 8.23197 8.23074 9.16675 7.08271 9.16675ZM16.5177 12.445C16.7967 13.1606 16.6517 14.0205 16.3534 14.7292C15.9998 15.572 15.3227 16.2101 14.4696 16.4887C14.0909 16.6126 13.6937 16.6667 13.2973 16.6667H6.2742C5.57532 16.6667 4.95689 16.499 4.44991 16.1869C4.13232 15.9908 4.07617 15.5384 4.31165 15.2452C4.7055 14.755 5.09432 14.2631 5.48649 13.7669C6.23397 12.8174 6.7376 12.5422 7.29737 12.7839C7.52446 12.8836 7.75239 13.0333 7.98703 13.1915C8.61216 13.6164 9.48115 14.2003 10.6258 13.5665C11.4092 13.1277 11.8635 12.3752 12.2591 11.7199L12.2658 11.7089C12.2937 11.663 12.3215 11.6171 12.3491 11.5714L12.3493 11.5711L12.3493 11.5711C12.4823 11.3511 12.6134 11.134 12.7618 10.934C12.9479 10.6838 13.6375 9.90118 14.5308 10.4585C15.0998 10.8093 15.5783 11.2841 16.0903 11.7923C16.2855 11.9867 16.4247 12.2077 16.5177 12.445Z" fill="#7986AC"/>
</svg>

<?xml version="1.0"?>
<svg width="20" height="20" xmlns="http://www.w3.org/2000/svg" xmlns:svg="http://www.w3.org/2000/svg">
 <g class="layer">
  <title>Layer 1</title>
  <path clip-rule="evenodd" d="m6.39,18.33l7.22,0c2.83,0 4.72,-1.98 4.72,-4.93l0,-6.8c0,-2.95 -1.89,-4.93 -4.72,-4.93l-7.22,0c-2.83,0 -4.72,1.98 -4.72,4.93l0,6.8c0,2.95 1.89,4.93 4.72,4.93zm0.69,-9.16c-1.15,0 -2.08,-0.94 -2.08,-2.09c0,-1.15 0.93,-2.08 2.08,-2.08c1.15,0 2.09,0.93 2.09,2.08c0,1.15 -0.94,2.09 -2.09,2.09zm9.44,3.28c0.28,0.71 0.13,1.57 -0.17,2.28c-0.35,0.84 -1.03,1.48 -1.88,1.76c-0.38,0.12 -0.78,0.18 -1.17,0.18l-7.03,0c-0.69,0 -1.31,-0.17 -1.82,-0.48c-0.32,-0.2 -0.37,-0.65 -0.14,-0.94c0.4,-0.49 0.78,-0.99 1.18,-1.48c0.74,-0.95 1.25,-1.23 1.81,-0.99c0.22,0.1 0.45,0.25 0.69,0.41c0.62,0.43 1.49,1.01 2.64,0.38c0.78,-0.44 1.23,-1.19 1.63,-1.85l0.01,-0.01c0.02,-0.05 0.05,-0.09 0.08,-0.14l0,0l0,0c0.13,-0.22 0.26,-0.44 0.41,-0.64c0.19,-0.25 0.88,-1.03 1.77,-0.47c0.57,0.35 1.05,0.82 1.56,1.33c0.2,0.2 0.33,0.42 0.43,0.66z" fill="#000000" fill-rule="evenodd" id="svg_1"/>
 </g>
</svg>
